site/static/img/background_gradient.svg

<svg width="1914" height="1289" viewBox="0 0 1914 1289" fill="none" xmlns="http://www.w3.org/2000/svg">
<path d="M124.999 644.701L769.233 0.467484L1413.47 644.701L124.999 644.701Z" fill="url(#paint0_linear_385_90629)"/>
<path d="M249.999 644.701L894.233 0.467484L1538.47 644.701L249.999 644.701Z" fill="url(#paint1_linear_385_90629)"/>
<path d="M0.233535 644.701L644.467 0.467484L1288.7 644.701L0.233535 644.701Z" fill="url(#paint2_linear_385_90629)"/>
<path d="M374.999 644.701L1019.23 0.467484L1663.47 644.701L374.999 644.701Z" fill="url(#paint3_linear_385_90629)"/>
<path d="M499.999 644.701L1144.23 0.467484L1788.47 644.701L499.999 644.701Z" fill="url(#paint4_linear_385_90629)"/>
<path d="M624.999 644.701L1269.23 0.467484L1913.47 644.701L624.999 644.701Z" fill="url(#paint5_linear_385_90629)"/>
<path d="M1788.47 644.234L1144.23 1288.47L500 644.234H1788.47Z" fill="url(#paint6_linear_385_90629)"/>
<path d="M1663.47 644.234L1019.23 1288.47L375 644.234H1663.47Z" fill="url(#paint7_linear_385_90629)"/>
<path d="M1913.47 644.234L1269.23 1288.47L625 644.234H1913.47Z" fill="url(#paint8_linear_385_90629)"/>
<path d="M1538.47 644.234L894.234 1288.47L250 644.234H1538.47Z" fill="url(#paint9_linear_385_90629)"/>
<path d="M1413.47 644.234L769.234 1288.47L125 644.234H1413.47Z" fill="url(#paint10_linear_385_90629)"/>
<path d="M1288.47 644.234L644.234 1288.47L0.000191004 644.234H1288.47Z" fill="url(#paint11_linear_385_90629)"/>
<defs>
<linearGradient id="paint0_linear_385_90629" x1="758.189" y1="644.701" x2="1413.47" y2="644.701" gradientUnits="userSpaceOnUse">
<stop stop-color="#00314C" stop-opacity="0.1"/>
<stop offset="1" stop-color="#00314C" stop-opacity="0.25"/>
</linearGradient>
<linearGradient id="paint1_linear_385_90629" x1="883.189" y1="644.701" x2="1538.47" y2="644.701" gradientUnits="userSpaceOnUse">
<stop stop-color="#00314C" stop-opacity="0.1"/>
<stop offset="1" stop-color="#00314C" stop-opacity="0.25"/>
</linearGradient>
<linearGradient id="paint2_linear_385_90629" x1="633.423" y1="644.701" x2="1288.7" y2="644.701" gradientUnits="userSpaceOnUse">
<stop stop-color="#00314C" stop-opacity="0.1"/>
<stop offset="1" stop-color="#00314C" stop-opacity="0.25"/>
</linearGradient>
<linearGradient id="paint3_linear_385_90629" x1="1008.19" y1="644.701" x2="1663.47" y2="644.701" gradientUnits="userSpaceOnUse">
<stop stop-color="#00314C" stop-opacity="0.1"/>
<stop offset="1" stop-color="#00314C" stop-opacity="0.25"/>
</linearGradient>
<linearGradient id="paint4_linear_385_90629" x1="1133.19" y1="644.701" x2="1788.47" y2="644.701" gradientUnits="userSpaceOnUse">
<stop stop-color="#00314C" stop-opacity="0.1"/>
<stop offset="1" stop-color="#00314C" stop-opacity="0.25"/>
</linearGradient>
<linearGradient id="paint5_linear_385_90629" x1="1258.19" y1="644.701" x2="1913.47" y2="644.701" gradientUnits="userSpaceOnUse">
<stop stop-color="#00314C" stop-opacity="0.1"/>
<stop offset="1" stop-color="#00314C" stop-opacity="0.25"/>
</linearGradient>
<linearGradient id="paint6_linear_385_90629" x1="1155.28" y1="644.234" x2="500" y2="644.234" gradientUnits="userSpaceOnUse">
<stop stop-color="#00314C" stop-opacity="0.1"/>
<stop offset="1" stop-color="#00314C" stop-opacity="0.25"/>
</linearGradient>
<linearGradient id="paint7_linear_385_90629" x1="1030.28" y1="644.234" x2="375" y2="644.234" gradientUnits="userSpaceOnUse">
<stop stop-color="#00314C" stop-opacity="0.1"/>
<stop offset="1" stop-color="#00314C" stop-opacity="0.25"/>
</linearGradient>
<linearGradient id="paint8_linear_385_90629" x1="1280.28" y1="644.234" x2="625" y2="644.234" gradientUnits="userSpaceOnUse">
<stop stop-color="#00314C" stop-opacity="0.1"/>
<stop offset="1" stop-color="#00314C" stop-opacity="0.25"/>
</linearGradient>
<linearGradient id="paint9_linear_385_90629" x1="905.278" y1="644.234" x2="250" y2="644.234" gradientUnits="userSpaceOnUse">
<stop stop-color="#00314C" stop-opacity="0.1"/>
<stop offset="1" stop-color="#00314C" stop-opacity="0.25"/>
</linearGradient>
<linearGradient id="paint10_linear_385_90629" x1="780.278" y1="644.234" x2="125" y2="644.234" gradientUnits="userSpaceOnUse">
<stop stop-color="#00314C" stop-opacity="0.1"/>
<stop offset="1" stop-color="#00314C" stop-opacity="0.25"/>
</linearGradient>
<linearGradient id="paint11_linear_385_90629" x1="655.278" y1="644.234" x2="0.000194666" y2="644.234" gradientUnits="userSpaceOnUse">
<stop stop-color="#00314C" stop-opacity="0.1"/>
<stop offset="1" stop-color="#00314C" stop-opacity="0.25"/>
</linearGradient>
</defs>
</svg>

<svg xmlns="http://www.w3.org/2000/svg" width="1914" height="1289" fill="none"><path fill="url(#a)" d="M125 644.7 769.23.47l644.24 644.23H125Z"/><path fill="url(#b)" d="M250 644.7 894.23.47l644.24 644.23H250Z"/><path fill="url(#c)" d="M.23 644.7 644.47.47 1288.7 644.7H.23Z"/><path fill="url(#d)" d="M375 644.7 1019.23.47l644.24 644.23H375Z"/><path fill="url(#e)" d="M500 644.7 1144.23.47l644.24 644.23H500Z"/><path fill="url(#f)" d="M625 644.7 1269.23.47l644.24 644.23H625Z"/><path fill="url(#g)" d="m1788.47 644.23-644.24 644.24L500 644.23h1288.47Z"/><path fill="url(#h)" d="m1663.47 644.23-644.24 644.24L375 644.23h1288.47Z"/><path fill="url(#i)" d="m1913.47 644.23-644.24 644.24L625 644.23h1288.47Z"/><path fill="url(#j)" d="m1538.47 644.23-644.24 644.24L250 644.23h1288.47Z"/><path fill="url(#k)" d="m1413.47 644.23-644.24 644.24L125 644.23h1288.47Z"/><path fill="url(#l)" d="m1288.47 644.23-644.24 644.24L0 644.23h1288.47Z"/><defs><linearGradient id="a" x1="758.19" x2="1413.47" y1="0" y2="0" gradientUnits="userSpaceOnUse"><stop offset="0" stop-color="#00314C" stop-opacity=".1"/><stop offset="1" stop-color="#00314C" stop-opacity=".25"/></linearGradient><linearGradient id="b" x1="883.19" x2="1538.47" y1="0" y2="0" gradientUnits="userSpaceOnUse"><stop offset="0" stop-color="#00314C" stop-opacity=".1"/><stop offset="1" stop-color="#00314C" stop-opacity=".25"/></linearGradient><linearGradient id="c" x1="633.42" x2="1288.7" y1="0" y2="0" gradientUnits="userSpaceOnUse"><stop offset="0" stop-color="#00314C" stop-opacity=".1"/><stop offset="1" stop-color="#00314C" stop-opacity=".25"/></linearGradient><linearGradient id="d" x1="1008.19" x2="1663.47" y1="0" y2="0" gradientUnits="userSpaceOnUse"><stop offset="0" stop-color="#00314C" stop-opacity=".1"/><stop offset="1" stop-color="#00314C" stop-opacity=".25"/></linearGradient><linearGradient id="e" x1="1133.19" x2="1788.47" y1="0" y2="0" gradientUnits="userSpaceOnUse"><stop offset="0" stop-color="#00314C" stop-opacity=".1"/><stop offset="1" stop-color="#00314C" stop-opacity=".25"/></linearGradient><linearGradient id="f" x1="1258.19" x2="1913.47" y1="0" y2="0" gradientUnits="userSpaceOnUse"><stop offset="0" stop-color="#00314C" stop-opacity=".1"/><stop offset="1" stop-color="#00314C" stop-opacity=".25"/></linearGradient><linearGradient id="g" x1="1155.28" x2="500" y1="0" y2="0" gradientUnits="userSpaceOnUse"><stop offset="0" stop-color="#00314C" stop-opacity=".1"/><stop offset="1" stop-color="#00314C" stop-opacity=".25"/></linearGradient><linearGradient id="h" x1="1030.28" x2="375" y1="0" y2="0" gradientUnits="userSpaceOnUse"><stop offset="0" stop-color="#00314C" stop-opacity=".1"/><stop offset="1" stop-color="#00314C" stop-opacity=".25"/></linearGradient><linearGradient id="i" x1="1280.28" x2="625" y1="0" y2="0" gradientUnits="userSpaceOnUse"><stop offset="0" stop-color="#00314C" stop-opacity=".1"/><stop offset="1" stop-color="#00314C" stop-opacity=".25"/></linearGradient><linearGradient id="j" x1="905.28" x2="250" y1="0" y2="0" gradientUnits="userSpaceOnUse"><stop offset="0" stop-color="#00314C" stop-opacity=".1"/><stop offset="1" stop-color="#00314C" stop-opacity=".25"/></linearGradient><linearGradient id="k" x1="780.28" x2="125" y1="0" y2="0" gradientUnits="userSpaceOnUse"><stop offset="0" stop-color="#00314C" stop-opacity=".1"/><stop offset="1" stop-color="#00314C" stop-opacity=".25"/></linearGradient><linearGradient id="l" x1="655.28" x2="0" y1="0" y2="0" gradientUnits="userSpaceOnUse"><stop offset="0" stop-color="#00314C" stop-opacity=".1"/><stop offset="1" stop-color="#00314C" stop-opacity=".25"/></linearGradient></defs></svg>
